src/lib/packages/icons/src/assets/line/envelope-star.svg

<svg width="24" height="24" viewBox="0 0 24 24" fill="none" xmlns="http://www.w3.org/2000/svg">
<path d="M12 19.75H5C2.582 19.75 1.25 18.418 1.25 16V7C1.25 4.582 2.582 3.25 5 3.25H17C19.418 3.25 20.75 4.582 20.75 7V11C20.75 11.414 20.414 11.75 20 11.75C19.586 11.75 19.25 11.414 19.25 11V7C19.25 5.423 18.577 4.75 17 4.75H5C3.423 4.75 2.75 5.423 2.75 7V16C2.75 17.577 3.423 18.25 5 18.25H12C12.414 18.25 12.75 18.586 12.75 19C12.75 19.414 12.414 19.75 12 19.75ZM12.0291 12.179L16.9409 8.60699C17.2759 8.36399 17.35 7.89401 17.106 7.55901C16.864 7.22501 16.3951 7.149 16.0581 7.394L11.146 10.966C11.058 11.03 10.941 11.03 10.853 10.966L5.94092 7.394C5.60392 7.149 5.13507 7.22601 4.89307 7.55901C4.64907 7.89401 4.72311 8.36299 5.05811 8.60699L9.96997 12.18C10.278 12.404 10.639 12.515 10.999 12.515C11.359 12.515 11.7221 12.403 12.0291 12.179ZM21.0811 21.521C21.4371 21.259 21.6119 20.826 21.5349 20.392L21.282 18.943L22.3989 17.877C22.7139 17.576 22.8291 17.131 22.6951 16.717C22.5611 16.3 22.208 16.002 21.771 15.94L20.2119 15.718L19.543 14.39C19.344 13.995 18.943 13.75 18.499 13.75C18.055 13.75 17.6541 13.995 17.4551 14.39L16.7859 15.718L15.2271 15.94C14.7901 16.002 14.437 16.3 14.303 16.717C14.169 17.132 14.2831 17.576 14.5991 17.877L15.7161 18.943L15.4629 20.391C15.3869 20.826 15.561 21.259 15.917 21.521C16.278 21.786 16.7509 21.825 17.1479 21.619L18.498 20.925L19.8491 21.62C20.0191 21.708 20.203 21.751 20.386 21.751C20.633 21.75 20.8751 21.673 21.0811 21.521ZM17.9771 19.507L17.0601 19.978L17.231 19.003C17.294 18.632 17.17 18.255 16.897 17.994L16.189 17.318L17.1831 17.176C17.5511 17.124 17.871 16.896 18.041 16.562L18.5 15.651L18.9609 16.565C19.1299 16.895 19.4489 17.123 19.8169 17.175L20.811 17.317L20.1021 17.994C19.8301 18.255 19.706 18.632 19.77 19.004L19.9399 19.978L19.0239 19.507C18.8599 19.423 18.679 19.38 18.5 19.38C18.321 19.38 18.1411 19.423 17.9771 19.507ZM20.2991 15.888H20.3091H20.2991ZM18.2051 15.067C18.2051 15.067 18.2051 15.066 18.2041 15.066L18.2051 15.067Z" fill="currentColor"/>
</svg>

<svg xmlns="http://www.w3.org/2000/svg" width="24" height="24" fill="none"><path fill="currentColor" d="M12 19.75H5c-2.418 0-3.75-1.332-3.75-3.75V7c0-2.418 1.332-3.75 3.75-3.75h12c2.418 0 3.75 1.332 3.75 3.75v4a.75.75 0 0 1-1.5 0V7c0-1.577-.673-2.25-2.25-2.25H5c-1.577 0-2.25.673-2.25 2.25v9c0 1.577.673 2.25 2.25 2.25h7a.75.75 0 0 1 0 1.5Zm.03-7.571 4.91-3.572a.75.75 0 1 0-.882-1.213l-4.912 3.572a.248.248 0 0 1-.293 0L5.941 7.394a.75.75 0 0 0-.883 1.213L9.97 12.18a1.747 1.747 0 0 0 2.06-.001Zm9.051 9.342c.356-.262.53-.695.454-1.129l-.253-1.449 1.117-1.066c.315-.301.43-.746.296-1.16a1.129 1.129 0 0 0-.924-.777l-1.56-.222-.668-1.328c-.199-.395-.6-.64-1.044-.64-.444 0-.845.245-1.044.64l-.67 1.328-1.558.222c-.437.062-.79.36-.924.777-.134.415-.02.859.296 1.16l1.117 1.066-.253 1.448a1.15 1.15 0 0 0 .454 1.13c.361.265.834.304 1.23.098l1.351-.694 1.351.695a1.166 1.166 0 0 0 1.232-.099Zm-3.104-2.014-.917.471.171-.975a1.131 1.131 0 0 0-.334-1.009l-.708-.676.994-.142c.368-.052.688-.28.858-.614l.459-.911.46.914c.17.33.489.558.857.61l.994.142-.709.677a1.131 1.131 0 0 0-.332 1.01l.17.974-.916-.471a1.153 1.153 0 0 0-1.047 0Zm2.322-3.619h.01-.01Zm-2.094-.821v-.001.001Z"/></svg>
